X:1
T:鸿雁
M:2/4
L:1/8
V:1
Q:1/4=80
K:C
|E2CA,G,4|G2AcA4|A2GECDGE|D6z2|
w: 鸿 雁|天 空 上|对 对 排 成 |行|
|G2AcA4|DECA,G,4|E2CA,G,A,E2|CA,-A,4z2|
w: 江 水 长|秋 草 黄|草 原 上 琴 声 忧|伤|
|E2CA,G,4|G2AcA4|A2GECDGE|D6z2|
w: 鸿 雁|向 南 方|飞 过 芦 苇|荡|
|G2AcA4|DECA,G,4|E2CA,G,A,E2|CA,-A,4z2|
w: 天 苍 茫|雁 何 往|心 中 是 北 方 家|乡|
|G2AcA4|DECA,G,4|E2CA,G,A,E2|CA,-A,4z2|
w: 天 苍 茫|雁 何 往|心 中 是 北 方 家|乡|